X:13591
T:Primo, A Hornpipe 173
M:C|
L:1/8
Q:160
S:John Clare,Poet,Helpstone (1793-1864)
R:Hornpipe
O:England
A:Northamptonshire
N:
Z:P Headford
K:G
Bc|d2d2 dBgd|B2B2 BdBG|FDAD BDAD|BdFA GFED|!
d2d2 dBgd|B2B2 BdBG|FADB cAFA|G2G2G2:|!
|:AF|D2D2 DcAF|D2D2 DcAF|dGFG eGFG|egfg dBAG|!
e2e2 ecge|d2d2 dBgd|egec BAGF|G2G2G2:|]


